svg/u1f349.svg

<svg viewBox="0 0 128 128" xmlns="http://www.w3.org/2000/svg">
  <path d="M30.37,22.83c-0.53-0.95-6.76-7.19-6.76-7.19s-1.37-2.11-4.23-2.11s-3.7,2.84-5.8,6.47 c-1.8,3.11-9.87,16.01-9.78,36.11c0.08,17.12,3.85,26.32,11.67,36.26c6.76,8.59,21.87,17.65,38.89,20.82 c17.01,3.17,39.84,1.9,52.63-6.97s15.32-18.78,16.49-26c1.48-9.17,1.22-21.13-2.47-22.49c-3.26-1.19-8.2,1.4-8.2,1.4L30.37,22.83z" fill="#7A9C41"/>
  <path d="M108.7,54.96l3.72,0.12l6.46,2.33c0,0-16.98,35.59-51.2,43.41c-32.17,7.35-55.83-8.36-58.51-37.81 c-2.8-30.81,13.99-47.9,13.99-47.9l4.68,2.46l25.12,46.55L108.7,54.96z" fill="#FFF6A0"/>
  <path d="M31.56,89.24c17.93,12.78,47.79,4.69,63.47-11.65c16.26-16.95,17.4-22.51,17.4-22.51 s-19.27-7.91-28.78-12.41S45.96,25.82,41.45,23.65S27.6,17.43,27.6,17.43S19.26,28.67,16.14,43.7S14.7,77.23,31.56,89.24z" fill="#FF6C75"/>
  <path d="M42.58,42.19c0.2,0.87-0.34,3.98-4.53,5.89c-2.17,0.99-3.87,0.05-4.48-1.46 c-0.68-1.68,0.3-3.88,2.69-4.9C39,40.54,42.44,41.57,42.58,42.19z" fill="#2F2F2F"/>
  <path d="M50.13,54.57c1.3,1.19-0.38,5-1.28,6.16c-0.9,1.17-3.64,3.69-5.84,1.32 c-2.27-2.46,0.63-5.39,1.56-6.17S48.86,53.41,50.13,54.57z" fill="#2F2F2F"/>
  <path d="M63.55,59.58c-1.29-0.07-4.15,2.83-3.71,6.27c0.4,3.11,2.03,3.73,3.37,3.83 c1.33,0.1,3.02-1.2,3.27-4.41C66.75,61.69,64.49,59.63,63.55,59.58z" fill="#2F2F2F"/>
  <path d="M77.24,56.62c-0.91,0.64-1.32,4,0.3,6.69c1.29,2.13,3.55,3.14,5.37,1.72c1.82-1.42,1.52-4-0.46-6.23 C80.48,56.57,78.1,56.01,77.24,56.62z" fill="#2F2F2F"/>
  <path d="M119.47,70.52c0.4,0.64,0.94,2.01-0.04,3.74c-0.86,1.52-1.89,2.3-1.6,4.24s1.77,1.6,1.69,5.51 c-0.06,2.86-2.18,4.98-4.03,6.46c-1.85,1.48-3,2.72-3.17,5.27c-0.17,2.61-0.62,4.98-2.18,6.46c-2.76,2.59-5.08,1.05-7.53,3.5 c-1.94,1.94-1.57,3.83-1.57,3.83s-1.9,0.93-5.29,2.01c-4.2,1.33-6.52,1.59-6.52,1.59s2.39-1.8,3.05-3.77s1.28-5.06,3.58-6.95 c4.57-3.62,7.77-0.82,9.79-2.88c1.81-1.85-0.37-4.15,1.97-8.47c1.95-3.59,6.13-3.58,6.42-6.34c0.29-2.76-1.51-3.08-0.99-6.58 C113.71,73.73,119.26,70.19,119.47,70.52z" fill="#C1CA32"/>
  <path d="M57.16,113.66c0,0,0.64-3.15,4.51-4.39c2.47-0.99,4.61,0.45,7.03-0.37c2.43-0.82,2.72-3.95,6.29-5.72 c3.58-1.77,6.17,0.78,9.58-0.37c3.41-1.15,1.81-5.43,4.85-8.43c3.67-3.62,6.94-1.16,9.58-3.13c3.54-2.63,2.71-7,5.39-7.08 c1.4-0.04,2.1,2.63,1.23,5.92c-0.86,3.29-3.29,5.19-5.64,5.92c-2.51,0.78-3.91,0.21-5.68,2.59c-1.2,1.61-1.71,5.29-5.14,7.36 c-5.1,3.09-6.99,1.11-9.91,3.09c-3.41,2.72-3.74,5.61-3.74,5.61s-5.97,0.19-8.81,0.03C62.24,114.44,57.16,113.66,57.16,113.66z" fill="#C1CA32"/>
  <path d="M36.62,107.59c0,0,5.47,0.41,8.31,0.16c2.84-0.25,8.19-1.11,8.52,1.4s-2.43,3.33-2.43,3.33 s-4.57-0.99-7.53-2.06C40.52,109.36,36.62,107.59,36.62,107.59z" fill="#C1CA32"/>
</svg>

<svg viewBox="0 0 128 128" xmlns="http://www.w3.org/2000/svg">
  <defs/>
  <path d="M30.37,22.83 C29.84,21.88 23.61,15.64 23.61,15.64 C23.61,15.64 22.24,13.53 19.38,13.53 C16.52,13.53 15.68,16.37 13.58,20 C11.78,23.11 3.71,36.01 3.8,56.11 C3.88,73.23 7.65,82.43 15.47,92.37 C22.23,100.96 37.34,110.02 54.36,113.19 C71.37,116.36 94.2,115.09 106.99,106.22 C119.78,97.35 122.31,87.44 123.48,80.22 C124.96,71.05 124.7,59.09 121.01,57.73 C117.75,56.54 112.81,59.13 112.81,59.13 L30.37,22.83 Z" fill="#7A9C41"/>
  <path d="M108.7,54.96 L112.42,55.08 L118.88,57.41 C118.88,57.41 101.9,93 67.68,100.82 C35.51,108.17 11.85,92.46 9.17,63.01 C6.37,32.2 23.16,15.11 23.16,15.11 L27.84,17.57 L52.96,64.12 L108.7,54.96 Z" fill="#FFF6A0"/>
  <path d="M31.56,89.24 C49.49,102.02 79.35,93.93 95.03,77.59 C111.29,60.64 112.43,55.08 112.43,55.08 C112.43,55.08 93.16,47.17 83.65,42.67 C74.14,38.17 45.96,25.82 41.45,23.65 C36.94,21.48 27.6,17.43 27.6,17.43 C27.6,17.43 19.26,28.67 16.14,43.7 C13.02,58.73 14.7,77.23 31.56,89.24 Z" fill="#FF6C75"/>
  <path d="M42.58,42.19 C42.78,43.06 42.24,46.17 38.05,48.08 C35.88,49.07 34.18,48.13 33.57,46.62 C32.89,44.94 33.87,42.74 36.26,41.72 C39,40.54 42.44,41.57 42.58,42.19 Z" fill="#2F2F2F"/>
  <path d="M50.13,54.57 C51.43,55.76 49.75,59.57 48.85,60.73 C47.95,61.9 45.21,64.42 43.01,62.05 C40.74,59.59 43.64,56.66 44.57,55.88 C45.5,55.1 48.86,53.41 50.13,54.57 Z" fill="#2F2F2F"/>
  <path d="M63.55,59.58 C62.26,59.51 59.4,62.41 59.84,65.85 C60.24,68.96 61.87,69.58 63.21,69.68 C64.54,69.78 66.23,68.48 66.48,65.27 C66.75,61.69 64.49,59.63 63.55,59.58 Z" fill="#2F2F2F"/>
  <path d="M77.24,56.62 C76.33,57.26 75.92,60.62 77.54,63.31 C78.83,65.44 81.09,66.45 82.91,65.03 C84.73,63.61 84.43,61.03 82.45,58.8 C80.48,56.57 78.1,56.01 77.24,56.62 Z" fill="#2F2F2F"/>
  <path d="M119.47,70.52 C119.87,71.16 120.41,72.53 119.43,74.26 C118.57,75.78 117.54,76.56 117.83,78.5 C118.12,80.44 119.6,80.1 119.52,84.01 C119.46,86.87 117.34,88.99 115.49,90.47 C113.64,91.95 112.49,93.19 112.32,95.74 C112.15,98.35 111.7,100.72 110.14,102.2 C107.38,104.79 105.06,103.25 102.61,105.7 C100.67,107.64 101.04,109.53 101.04,109.53 C101.04,109.53 99.14,110.46 95.75,111.54 C91.55,112.87 89.23,113.13 89.23,113.13 C89.23,113.13 91.62,111.33 92.28,109.36 C92.94,107.39 93.56,104.3 95.86,102.41 C100.43,98.79 103.63,101.59 105.65,99.53 C107.46,97.68 105.28,95.38 107.62,91.06 C109.57,87.47 113.75,87.48 114.04,84.72 C114.33,81.96 112.53,81.64 113.05,78.14 C113.71,73.73 119.26,70.19 119.47,70.52 Z" fill="#C1CA32"/>
  <path d="M57.16,113.66 C57.16,113.66 57.8,110.51 61.67,109.27 C64.14,108.28 66.28,109.72 68.7,108.9 C71.13,108.08 71.42,104.95 74.99,103.18 C78.57,101.41 81.16,103.96 84.57,102.81 C87.98,101.66 86.38,97.38 89.42,94.38 C93.09,90.76 96.36,93.22 99,91.25 C102.54,88.62 101.71,84.25 104.39,84.17 C105.79,84.13 106.49,86.8 105.62,90.09 C104.76,93.38 102.33,95.28 99.98,96.01 C97.47,96.79 96.07,96.22 94.3,98.6 C93.1,100.21 92.59,103.89 89.16,105.96 C84.06,109.05 82.17,107.07 79.25,109.05 C75.84,111.77 75.51,114.66 75.51,114.66 C75.51,114.66 69.54,114.85 66.7,114.69 C62.24,114.44 57.16,113.66 57.16,113.66 Z" fill="#C1CA32"/>
  <path d="M36.62,107.59 C36.62,107.59 42.09,108 44.93,107.75 C47.77,107.5 53.12,106.64 53.45,109.15 C53.78,111.66 51.02,112.48 51.02,112.48 C51.02,112.48 46.45,111.49 43.49,110.42 C40.52,109.36 36.62,107.59 36.62,107.59 Z" fill="#C1CA32"/>
</svg>
